X:109
T: LASST UNS SINGN UND FROEHLICH SEIN
N: E1162
O: Europa, Mitteleuropa, Deutschland, Niederrhein
R: Trink -, Zech - Lied, geistlich
M: 4/4
L: 1/4
K: F
 | FFGF | EED2 |
C2D2 | E2F
F | AAAG | AGF
F | GGGG | FGA2 |
C2D2 | E2Fz

@@@ Tune index: 4793
